X:35
T:Swiss Boy,The. JBs.035
S:Jas.Blackshaw MS, 1837, N.Shropshire
Z:Tony Weatherall 2006
M:2/4
L:1/8
Q:1/2=100
A:North Shropshire
N:A few bars missing compared with other versions.
R:Country Dance
K:F
A>B|â€_No key sig. in MSâ€c2A>B|c2A>B|c2a>g|f2c>c|c2b>a|g2a>g|f2:|!
|:c>c|c2(g>f)|e2 c>c|c2a>g|f2c>c|c2(g>f)|e2 c>c|c2a>g|!
f2A>B|c2 A>B|c2A>B|c2a>g|f2c>c|c2b>a|g2a>g|f2:|

